X:88
T:Tom Tinker
R:Jig
M:6/8
L:1/8
Q:100
K:D
d|dfd egB/2c/2|d>cB A2g|f>ef/2g/2 afd|ecA d2:|
d|ef2 eg2|d>cB A2g|f>ef/2g/2 afd|ecA d2:|

